X: 14965
T: Geese In The Bog, The
R: jig
M: 6/8
K: Adorian
B|:cEE GEE|cEE GAB|cEE GED|EAA A2B|
cEE GEE|cEE GAB|cBA GED|1 EAA A2B:|2 EAA A3||
|:B/^c/de ged|eaf ged|B/^c/de ged|ea^g a2A|
B/^c/de ged|eaf ged|cBA BAG|1 EAA A3:|2 EAA A2B||

